portfolio/img/fl.svg

<svg width="50" height="50" viewBox="0 0 50 50" fill="none" xmlns="http://www.w3.org/2000/svg">
<rect width="50" height="50" rx="15" fill="white"/>
<path fill-rule="evenodd" clip-rule="evenodd" d="M23.9303 10.5697C23.9103 10.2822 23.8553 10.0009 23.7653 9.73219C23.7103 9.55719 23.6253 9.40719 23.5103 9.28219C23.4153 9.19469 23.3053 9.14469 23.1853 9.14469H11.5853C11.1753 9.13219 10.7703 9.30094 10.4603 9.62594C10.1553 9.94469 10.0003 10.4759 10.0003 11.2072V40.3947C9.99534 40.5697 10.0453 40.7384 10.1353 40.8697C10.2553 41.0259 10.4053 41.1447 10.5703 41.2072C10.8353 41.3134 11.1103 41.3822 11.3903 41.4197C11.8303 41.4759 12.2703 41.5009 12.7153 41.4947C13.0953 41.5009 13.4753 41.4759 13.8503 41.4197C14.1303 41.3822 14.4053 41.3134 14.6703 41.2072C14.8403 41.1509 14.9903 41.0322 15.1053 40.8697C15.1853 40.7322 15.2303 40.5634 15.2253 40.3947V28.5134H22.6553C22.7703 28.5134 22.8853 28.4634 22.9803 28.3759C23.0953 28.2509 23.1803 28.0947 23.2353 27.9134C23.3203 27.6509 23.3753 27.3759 23.4003 27.0947C23.4353 26.6822 23.4553 26.2634 23.4503 25.8509C23.4553 25.3947 23.4353 24.9384 23.4003 24.4822C23.3803 24.2072 23.3253 23.9322 23.2353 23.6759C23.1803 23.5134 23.0953 23.3634 22.9803 23.2509C22.8853 23.1697 22.7703 23.1259 22.6553 23.1259H15.2303V14.5134H23.1853C23.3053 14.5134 23.4203 14.4634 23.5103 14.3634C23.6203 14.2384 23.7053 14.0884 23.7653 13.9197C23.8503 13.6634 23.9053 13.3884 23.9303 13.1134C23.9653 12.6947 23.9853 12.2759 23.9803 11.8572C23.9853 11.4259 23.9653 10.9947 23.9303 10.5697ZM40.9753 37.4509C40.9503 37.1697 40.8903 36.8947 40.8003 36.6322C40.7353 36.4509 40.6303 36.2947 40.5003 36.1884C40.3753 36.0947 40.2303 36.0447 40.0803 36.0509H33.2403V10.0509C33.2403 9.88219 33.1853 9.71969 33.0853 9.60094C32.9403 9.44469 32.7653 9.33219 32.5753 9.27594C32.2603 9.17594 31.9453 9.11344 31.6203 9.07594C31.1203 9.01969 30.6203 8.99469 30.1153 9.00094C29.6503 8.99469 29.1903 9.01969 28.7303 9.07594C28.4053 9.10719 28.0803 9.17594 27.7603 9.27594C27.5703 9.32594 27.3953 9.43844 27.2453 9.60094C27.1453 9.71969 27.0903 9.88219 27.0903 10.0509V39.3947C27.0903 40.1259 27.2653 40.6509 27.6253 40.9759C27.9953 41.3009 28.4653 41.4759 28.9503 41.4572H40.0803C40.2303 41.4634 40.3753 41.4072 40.5003 41.3072C40.6403 41.1759 40.7453 41.0072 40.8003 40.8259C40.8903 40.5509 40.9503 40.2697 40.9753 39.9822C41.0553 39.1447 41.0553 38.3009 40.9753 37.4697V37.4509Z" fill="#00CD5E"/>
</svg>

<svg width="50" height="50" fill="none" xmlns="http://www.w3.org/2000/svg"><rect width="50" height="50" rx="15" fill="#fff"/><path fill-rule="evenodd" clip-rule="evenodd" d="M23.93 10.57a3.372 3.372 0 0 0-.165-.838 1.174 1.174 0 0 0-.255-.45.476.476 0 0 0-.325-.137h-11.6a1.492 1.492 0 0 0-1.125.48c-.305.32-.46.85-.46 1.582v29.188a.806.806 0 0 0 .135.475c.12.156.27.275.435.337.265.106.54.175.82.213.44.056.88.08 1.325.075.38.006.76-.02 1.135-.075.28-.038.555-.107.82-.213a.88.88 0 0 0 .435-.337.905.905 0 0 0 .12-.475V28.513h7.43c.115 0 .23-.05.325-.137.115-.125.2-.281.255-.463a3.73 3.73 0 0 0 .165-.818c.035-.413.055-.832.05-1.244a15.65 15.65 0 0 0-.05-1.369 3.135 3.135 0 0 0-.165-.806 1.075 1.075 0 0 0-.255-.425.502.502 0 0 0-.325-.125H15.23v-8.613h7.955c.12 0 .235-.05.325-.15.11-.125.195-.275.255-.443.085-.257.14-.532.165-.807.035-.418.055-.837.05-1.256.005-.431-.015-.862-.05-1.287Zm17.045 26.88a3.475 3.475 0 0 0-.175-.818 1.015 1.015 0 0 0-.3-.444.653.653 0 0 0-.42-.137h-6.84v-26a.702.702 0 0 0-.155-.45 1.143 1.143 0 0 0-.51-.325c-.315-.1-.63-.163-.955-.2-.5-.056-1-.081-1.505-.075-.465-.006-.925.019-1.385.075-.325.031-.65.1-.97.2-.19.05-.365.162-.515.325a.702.702 0 0 0-.155.45v29.344c0 .73.175 1.256.535 1.58.37.326.84.5 1.325.482h11.13c.15.006.295-.05.42-.15.14-.131.245-.3.3-.481.09-.275.15-.556.175-.844.08-.837.08-1.681 0-2.512v-.02Z" fill="#00CD5E"/></svg>
